packages/foundations/assets/icons/functional/images/social/thumbs_down_16.svg

<svg width="16" height="16" viewBox="0 0 16 16" fill="none" xmlns="http://www.w3.org/2000/svg">
<g clip-path="url(#clip0_187_453)">
<path fill-rule="evenodd" clip-rule="evenodd" d="M10.808 10.4008C10.9368 10.7768 11.0576 11.212 11.1216 11.6608C11.2224 12.3664 11.0552 13.036 10.648 13.5456C10.2576 14.036 9.68158 14.3464 9.01598 14.4C7.72398 14.3856 7.30398 13.06 7.13278 12.5128C6.71998 11.3816 6.09998 10.7832 5.58798 10.4608C5.55598 10.8736 5.22078 11.2016 4.79998 11.2016H2.39998C1.95838 11.2016 1.59998 10.844 1.59998 10.4016V3.20002C1.59998 2.75762 1.95838 2.40002 2.39998 2.40002H4.79998C5.15358 2.40002 5.44398 2.63282 5.54958 2.95122C6.96798 2.35602 8.90558 1.60003 9.59998 1.60003C11.9328 1.60003 14.4 4.47842 14.4 7.20002C14.4 8.07522 14.4 10.4 12 10.4L10.808 10.4008ZM3.19998 4.00082V9.60162H3.99998V4.15602V4.00082H3.19998ZM5.59998 4.67122V8.69442C6.45278 9.00802 7.85918 9.83842 8.64798 12C8.82318 12.5584 8.94318 12.7368 9.00238 12.7944C9.12878 12.768 9.28238 12.6936 9.39678 12.5496C9.52958 12.3832 9.57678 12.1608 9.53758 11.888C9.39998 10.928 8.90078 9.99042 8.89518 9.98082C8.76158 9.73282 8.76878 9.43202 8.91278 9.19122C9.05678 8.95042 9.31758 8.80162 9.59918 8.80162H11.9992C12.464 8.80162 12.7992 8.80162 12.7992 7.20162C12.7992 5.21762 10.9376 3.20162 9.60478 3.20162C9.18398 3.22163 7.29358 3.94482 5.59998 4.67122Z" fill="#1A1C1F"/>
</g>
<defs>
<clipPath id="clip0_187_453">
<rect width="16" height="16" fill="white"/>
</clipPath>
</defs>
</svg>

<svg xmlns="http://www.w3.org/2000/svg" width="16" height="16" fill="none"><g clip-path="url(#a)"><path fill="#1A1C1F" fill-rule="evenodd" d="M10.808 10.4c.129.377.25.812.314 1.26.1.706-.067 1.376-.474 1.886-.39.49-.966.8-1.632.854-1.292-.014-1.712-1.34-1.883-1.887-.413-1.131-1.033-1.73-1.545-2.052a.794.794 0 0 1-.788.74H2.4a.8.8 0 0 1-.8-.8V3.2a.8.8 0 0 1 .8-.8h2.4a.79.79 0 0 1 .75.551C6.968 2.356 8.906 1.6 9.6 1.6c2.333 0 4.8 2.878 4.8 5.6 0 .875 0 3.2-2.4 3.2zM3.2 4v5.602H4V4zm2.4.671v4.023c.853.314 2.26 1.144 3.048 3.306.175.558.295.737.354.794.127-.026.28-.1.395-.244q.2-.252.14-.662c-.137-.96-.636-1.898-.642-1.907A.8.8 0 0 1 9.6 8.8H12c.465 0 .8 0 .8-1.6 0-1.983-1.861-4-3.194-4-.421.02-2.311.744-4.005 1.47" clip-rule="evenodd"/></g><defs><clipPath id="a"><path fill="#fff" d="M0 0h16v16H0z"/></clipPath></defs></svg>
